img/svg/404.svg

<svg width="340" height="134" viewBox="0 0 340 134" fill="none" xmlns="http://www.w3.org/2000/svg">
<path fill-rule="evenodd" clip-rule="evenodd" d="M14.729 112.604C14.5407 112.65 14.4082 112.818 14.4082 113.012C14.4082 113.247 14.6015 113.437 14.8368 113.432L60.3725 112.489C61.5404 112.465 62.4804 113.442 62.4103 114.609L61.5288 129.263C61.4596 130.413 62.3734 131.384 63.5252 131.384H91.9193C93.0593 131.384 93.9687 130.432 93.9173 129.293L93.2591 114.703C93.2049 113.503 94.2141 112.526 95.4122 112.619L103.818 113.273C104.981 113.364 105.973 112.445 105.973 111.279V92.9814C105.973 91.6857 104.76 90.732 103.501 91.0379L14.729 112.604ZM117.454 87.6483C116.506 87.8786 115.859 88.7596 115.954 89.7307C116.397 94.2689 117.344 98.9444 118.794 103.757C120.883 110.593 124.49 116.526 129.617 121.558C137.781 129.532 148.177 133.52 160.803 133.52C173.43 133.52 183.825 129.532 191.989 121.558C197.116 116.526 200.723 110.593 202.812 103.757C204.901 96.8271 205.945 90.1816 205.945 83.8209C205.945 78.928 205.308 73.8615 204.035 68.6213C203.778 67.5671 202.709 66.9365 201.655 67.1926L173.907 73.9336C172.838 74.1934 172.185 75.2679 172.368 76.3531C172.728 78.4825 172.907 80.8293 172.907 83.3937C172.907 92.0328 170.866 98.1562 166.784 101.764C164.885 103.378 162.892 104.185 160.803 104.185C158.43 104.185 156.389 103.378 154.68 101.764C150.598 98.0612 148.556 91.9379 148.556 83.3937C148.556 83.1925 148.558 82.9926 148.56 82.7941C148.575 81.4419 147.326 80.3912 146.012 80.7104L117.454 87.6483ZM243.445 57.0403C242.993 57.1502 242.593 57.4146 242.314 57.7879L219.788 87.9882C219.53 88.3336 219.391 88.753 219.391 89.184V111.399C219.391 112.52 220.312 113.422 221.432 113.398L265.355 112.489C266.523 112.465 267.463 113.442 267.393 114.609L266.511 129.263C266.442 130.413 267.356 131.384 268.508 131.384H296.902C298.042 131.384 298.951 130.432 298.9 129.293L298.242 114.703C298.188 113.503 299.197 112.526 300.395 112.619L308.801 113.273C309.963 113.364 310.956 112.445 310.956 111.279V88.8169C310.956 87.6562 309.971 86.7393 308.814 86.822L301.137 87.3704C299.979 87.4531 298.994 86.5361 298.994 85.3754V46.0893C298.994 44.7937 297.781 43.84 296.522 44.1458L243.445 57.0403ZM267.666 85.5234C267.666 86.628 266.77 87.5234 265.666 87.5234H258.979C256.459 87.5234 253.981 87.822 251.547 88.4193C251.318 88.4755 251.081 88.3562 250.994 88.1373C250.916 87.9426 250.977 87.7209 251.139 87.5876C252.301 86.6304 253.585 85.185 254.992 83.2513L263.963 71.7166C265.686 69.4764 267.019 67.4316 267.96 65.5824C268.109 65.2896 268.48 65.187 268.754 65.3692C268.953 65.502 269.04 65.7505 268.971 65.9797C268.101 68.8651 267.666 71.4894 267.666 73.8527V85.5234Z" fill="#BABDFF"/>
<path fill-rule="evenodd" clip-rule="evenodd" d="M101.298 86.1164C101.346 87.348 102.522 88.1994 103.719 87.9085L132.792 80.8456C133.647 80.638 134.26 79.8952 134.342 79.0197C134.939 72.6383 136.915 67.9255 140.272 64.8813C141.98 63.2674 144.022 62.4605 146.395 62.4605C148.484 62.4605 150.477 63.2674 152.376 64.8813C154.536 66.8404 156.124 69.4906 157.142 72.8318C157.468 73.9032 158.552 74.5876 159.64 74.3232L187.265 67.6121C188.354 67.3476 189.015 66.2398 188.701 65.1644C188.604 64.8334 188.505 64.5017 188.404 64.1693C186.315 57.239 182.708 51.2581 177.581 46.2265C169.417 38.2519 159.021 34.2646 146.395 34.2646C133.769 34.2646 123.373 38.2519 115.209 46.2265C110.082 51.2581 106.475 57.239 104.386 64.1693C102.297 71.0047 101.253 77.5552 101.253 83.821C101.253 84.582 101.268 85.3471 101.298 86.1164ZM91.5652 89.2889C91.5652 90.2116 90.934 91.0145 90.0374 91.2323L2.47214 112.505C1.21311 112.811 0 111.857 0 110.562V89.184C0 88.7531 0.139193 88.3336 0.396852 87.9882L38.2762 37.2049C38.6537 36.6988 39.248 36.4007 39.8794 36.4007H77.6034C78.708 36.4007 79.6034 37.2961 79.6034 38.4007V85.3755C79.6034 86.5362 80.5881 87.4531 81.7459 87.3704L89.4228 86.8221C90.5805 86.7394 91.5652 87.6563 91.5652 88.817V89.2889ZM296.443 113.433C296.392 113.429 296.353 113.386 296.353 113.336V86.7736C296.353 86.7225 296.393 86.6801 296.444 86.6765C296.5 86.6725 296.548 86.7171 296.548 86.7736V113.336C296.548 113.392 296.5 113.437 296.443 113.433ZM284.586 42.3968C284.586 43.3195 283.955 44.1224 283.058 44.3403L233.345 56.4175C231.524 56.8598 230.15 54.7801 231.27 53.2782L243.259 37.2049C243.636 36.6988 244.231 36.4007 244.862 36.4007H282.586C283.691 36.4007 284.586 37.2961 284.586 38.4007V42.3968ZM39.5881 87.5234H46.2747C47.3792 87.5234 48.2747 86.628 48.2747 85.5234V73.8527C48.2747 71.4895 48.7098 68.8652 49.5801 65.9798C49.6492 65.7505 49.5618 65.5021 49.3626 65.3693C49.0892 65.187 48.718 65.2896 48.569 65.5825C47.6277 67.4317 46.2955 69.4764 44.5722 71.7167L35.6008 83.2513C34.1945 85.185 32.9102 86.6304 31.7481 87.5876C31.5862 87.7209 31.5249 87.9427 31.6027 88.1373C31.6903 88.3562 31.9269 88.4755 32.1558 88.4194C34.5906 87.8221 37.068 87.5234 39.5881 87.5234Z" fill="#BABDFF"/>
<path d="M297.3 2.46035L293.387 15.3177C292.888 16.9553 294.544 18.4216 296.109 17.7291L310.644 11.3004C312.123 10.6462 312.254 8.59789 310.87 7.76037L300.249 1.33167C299.133 0.656285 297.68 1.21253 297.3 2.46035Z" fill="#BABDFF"/>
<path d="M325.663 59.0718L319.97 52.4689C318.853 51.1727 319.774 49.163 321.485 49.163H330.137C331.587 49.163 332.556 50.6579 331.962 51.9811L329.002 58.584C328.403 59.9203 326.619 60.1809 325.663 59.0718Z" fill="#BABDFF"/>
<path d="M333.805 17.0509L332.306 19.2423C331.519 20.3922 332.12 21.9741 333.472 22.312L335.778 22.8887C337.276 23.2632 338.616 21.8708 338.183 20.3884L337.376 17.6203C336.903 15.9994 334.759 15.6575 333.805 17.0509Z" fill="#BABDFF"/>
</svg>

<svg width="340" height="134" fill="none" xmlns="http://www.w3.org/2000/svg"><path fill-rule="evenodd" clip-rule="evenodd" d="M14.729 112.604a.42.42 0 00.108.828l45.536-.943a2 2 0 012.037 2.12l-.881 14.654a2 2 0 001.996 2.121H91.92a2 2 0 001.998-2.091l-.658-14.59a2 2 0 012.153-2.084l8.406.654a1.999 1.999 0 002.155-1.994V92.981a2 2 0 00-2.472-1.943L14.73 112.604zm102.725-24.956a1.956 1.956 0 00-1.5 2.083c.443 4.538 1.39 9.213 2.84 14.026 2.089 6.836 5.696 12.769 10.823 17.801 8.164 7.974 18.56 11.962 31.186 11.962 12.627 0 23.022-3.988 31.186-11.962 5.127-5.032 8.734-10.965 10.823-17.801 2.089-6.93 3.133-13.575 3.133-19.936 0-4.893-.637-9.96-1.91-15.2-.257-1.054-1.326-1.684-2.38-1.428l-27.748 6.74c-1.069.26-1.722 1.335-1.539 2.42.36 2.13.539 4.476.539 7.04 0 8.64-2.041 14.763-6.123 18.371-1.899 1.614-3.892 2.421-5.981 2.421-2.373 0-4.414-.807-6.123-2.421-4.082-3.703-6.124-9.826-6.124-18.37 0-.202.002-.401.004-.6.015-1.352-1.234-2.403-2.548-2.084l-28.558 6.938zM243.445 57.04c-.452.11-.852.375-1.131.748l-22.526 30.2a1.998 1.998 0 00-.397 1.196v22.215c0 1.121.921 2.023 2.041 1.999l43.923-.909a2 2 0 012.038 2.12l-.882 14.654a2.001 2.001 0 001.997 2.121h28.394a2 2 0 001.998-2.091l-.658-14.59a2 2 0 012.153-2.084l8.406.654a2 2 0 002.155-1.994V88.817a2 2 0 00-2.142-1.995l-7.677.548a2 2 0 01-2.143-1.995V46.09a2 2 0 00-2.472-1.943L243.445 57.04zm24.221 28.483a2 2 0 01-2 2h-6.687c-2.52 0-4.998.299-7.432.896a.473.473 0 01-.408-.831c1.162-.958 2.446-2.403 3.853-4.337l8.971-11.534c1.723-2.24 3.056-4.285 3.997-6.135a.55.55 0 01.794-.213.545.545 0 01.217.61c-.87 2.886-1.305 5.51-1.305 7.874v11.67z" fill="#BABDFF"/><path fill-rule="evenodd" clip-rule="evenodd" d="M101.298 86.116c.048 1.232 1.224 2.083 2.421 1.793l29.073-7.063c.855-.208 1.468-.95 1.55-1.826.597-6.382 2.573-11.094 5.93-14.139 1.708-1.614 3.75-2.42 6.123-2.42 2.089 0 4.082.806 5.981 2.42 2.16 1.96 3.748 4.61 4.766 7.95.326 1.072 1.41 1.757 2.498 1.492l27.625-6.71c1.089-.265 1.75-1.373 1.436-2.449-.097-.33-.196-.662-.297-.995-2.089-6.93-5.696-12.91-10.823-17.942-8.164-7.975-18.56-11.962-31.186-11.962-12.626 0-23.022 3.987-31.186 11.962-5.127 5.031-8.734 11.012-10.823 17.942-2.089 6.836-3.133 13.386-3.133 19.652 0 .761.015 1.526.045 2.295zm-9.733 3.173a2 2 0 01-1.528 1.943L2.472 112.505A2 2 0 010 110.562V89.184a2 2 0 01.397-1.196l37.88-50.783a2 2 0 011.602-.804h37.724a2 2 0 012 2v46.974a2 2 0 002.143 1.995l7.677-.548a2 2 0 012.142 1.995v.472zm204.878 24.144a.098.098 0 01-.09-.097V86.774c0-.052.04-.094.091-.097a.097.097 0 01.104.097v26.562a.098.098 0 01-.105.097zm-11.857-71.036a2 2 0 01-1.528 1.943l-49.713 12.077c-1.821.443-3.195-1.637-2.075-3.139l11.989-16.073a2 2 0 011.603-.804h37.724a2 2 0 012 2v3.996zM39.588 87.523h6.687a2 2 0 002-2v-11.67c0-2.363.435-4.988 1.305-7.873a.544.544 0 00-1.011-.398c-.941 1.85-2.274 3.894-3.997 6.135L35.601 83.25c-1.407 1.934-2.69 3.38-3.853 4.337a.474.474 0 00.408.832 31.081 31.081 0 017.432-.897z" fill="#BABDFF"/><path d="M297.3 2.46l-3.913 12.858c-.499 1.637 1.157 3.104 2.722 2.411l14.535-6.429c1.479-.654 1.61-2.702.226-3.54l-10.621-6.428A2 2 0 00297.3 2.46zm28.363 56.612l-5.693-6.603c-1.117-1.296-.196-3.306 1.515-3.306h8.652a2 2 0 011.825 2.818l-2.96 6.603a2 2 0 01-3.339.488zm8.142-42.022l-1.499 2.192a2 2 0 001.166 3.07l2.306.577c1.498.374 2.838-1.018 2.405-2.5l-.807-2.769c-.473-1.62-2.617-1.963-3.571-.57z" fill="#BABDFF"/></svg>
